X:0317
T:Quick Step 2d. Regt.
N:the last two bars of lines 1 and 3 are printed
N:as one, |DGG2:| i.e. with half the note values
M:2/4
L:1/8
Q:1/4=88
I: :: ::
Z:Jack Campin * www.campin.me.uk * 2009
K:G
d3 e|dBAG|FGAB|A2Bc|d3 g|dBAG|D2G2|G4:|
dBAG|dBAG|Bcde|d2g2|dBAG|dBAG|FGAB|A4 |
dBAG|dBAG|Bcde|d2g2|d3 e|dBAG|D2G2|G4:|
<end>
<start>
